X:1
T: Little Katie Kearney
C:
R:Reel
Q: 232
K:D
M:4/4
L:1/8
|:ed|cA AG EA AB|cA Ac f2 ed|cA AG EA AB|dB GB d2 ed|
cA AG EA AB|cA Ac f2 ed|cA AG EA AB|dB GB d2 ed|
cB cd ef ed|cB cd ea a2|cB cd ef ge|dB GB d2 ed|
cB cd ef ed|cB cd ea ab|c'a bg af ge|dB GB d2:|
